X:770
T: Liam's Reel
T: R\'il Liam
S: B.Breathnach: "Ceol Rince na hEireann" II/220
Z: B.Black
L: 1/8
M: 4/4
R: reel
K: G
(3Bcd|g2 gf g2 dg|ggfg edBd|edfd edfd|edfd edBd|
g2 gf g2 zg|(3ggg fg edBA|(3B^cd ef ggge|1 dBAB GA :|2\
dBAB G3 ||
A|Bddd Bddd|Bddd edBd|edfd edfd|edfd edBA|
Bddd Bddd|Bddd edBA|(3B^cd ef ggge|dBAB G3 :|

